X:1
T:Jetz ists genug
T:Jacob Regnart
T:Source : Breitkopf & Härtel---Leipzig---R.Eitner---1895. First print : Deutsche Lieder mit  Stimmen---Nürnberg---D.Gerlach---1579. Editor : André Vierendeels (02/11/17). Notes : Original clefs : G2, C2 C3 
T:Jetz ists genug
T:©
T:©
C:Jacob Regnart
Z:©
%%score [ 1 2 3 ]
L:1/8
Q:1/4=121
M:2/2
K:F
V:1 treble nm="Soprano 1" snm="S 1"
V:2 treble nm="Soprano 2" snm="S 2"
V:3 treble-8 nm="Tenor" snm="T"
V:1
"^1)" A4 A2 B2 | G2 c2 B2 G2 |1[M:2/4] A4 :|2[M:2/2] A2 c2 c2 c2 || A4 z2 A2- | A2 B4 A2 | %6
w: Jetz ist ge-|nug, ich werd nu|klug,|klug durch Weibs Be-|trug drumb|_ scheid mit|
w: Jetz ist mein|Zil, und auch mein|Will,|Will, den Nar- ren-|spil nit|_ glau- ben|
[M:2/4] z2 z2 |[M:2/2] z2 c2 c2 c2 | A4 z2 A2- | A2 B4 A2 |[M:2/4] G4 |: z2 A2 | %12
w: |durch Weibs Be-|trug, drumb|_ scheid mit|Fug,|jetz|
w: |der Nar- ren-|spil nit|_ glau- ben|will,|jetz|
[M:2/2] A2 B2 !fermata!G4 :| %13
w: ists ge- nug.|
w: ists ge- nug.|
V:2
"^2)""^1)" z2 F2 F2 F2 | E3 C D2 E2 |1[M:2/4] F4 :|2[M:2/2] F8 || z2 F2 F2 F2 | D3 D F2 F2 | %6
w: Jetz ist ge-|nug, ich werd nu|klug,|klug|durch Weibs Be-|trug, drumb scheid mit|
w: Jetz scheid da-|hin, Frau Ve- nu-|sin;|sin;|es steht mein|Sinn zu an- dren|
[M:2/4] E4 |[M:2/2] F8 | z2 F2 F2 F2 | D3 D F2 F2 |[M:2/4] E4 |: z2 F2 | %12
w: Fug;|durch,|durch Weibs Be-|trug, drumb scheid mit|Fug,|jetz|
w: Gwin,|es,|es steht mein|Sinn zu an- dren|Gwin,|jetz|
[M:2/2] F2 F2 !fermata!E4 :| %13
w: ists ge- nug.|
w: ist ge- nug.|
V:3
"^3)""^1)""^4)" f4 d2 B2 | c3 G B2 c2 |1[M:2/4] F4 :|2[M:2/2] F4 z2 f2 || f2 f2 d4 | z2 B2 B2 F2 | %6
w: Jetz ist ge-|nug, ich werd nu|klug,|klug, durch|Weibs Be- trug,|drumb scheid mit|
w: Jetz nimm mein|Lehr: ich will nun|mehr,|mehr, in|meim al- ter|trach- ten nach|
[M:2/4] c4 |[M:2/2] z4 z2 f2 | f2 f2 d4 | z2 B2 B2 F2 |[M:2/4] c4 |: f4 | %12
w: Fug,|durch|Weibs Be- trug,|drumb scheid mi|Fug,|jetz|
w: Ehr,|in|meim al- ter|trach- ten nach|Ehr,|jetz|
[M:2/2] d2 B2 !fermata!c4 :| %13
w: ists ge- nug.|
w: ists ge- nug.|

